X:1
T:Just One Touch
T:J. Howard Entwistle
T:Just One Touch
T:Public Domain
T:Public Domain
T:Public Domain
C:J. Howard Entwistle
Z:Public Domain
%%score ( 1 2 ) ( 3 4 ) ( 5 6 )
L:1/8
M:6/8
K:Bb
V:1 treble 
V:2 treble 
V:3 bass 
V:4 bass 
V:5 treble 
V:6 treble 
V:1
 F2 F F2 D/F/ | G2 G F3 | B2 B d>cB | c2 d c3 | d2 d d>cB | (BA)G F3 | F2 F/F/ ABc | B6 || %8
w: 1.~Just one touch as He|moves a- long,|Pushed and pressed by the|jost- ling throng,|Just one touch and the|weak * was strong,|Cured by the Heal- er di-|vine.|
w: 2.~Just one touch and He|makes me whole,|Speaks sweet peace to my|sin sick soul,|At His feet all my|bur- * dens roll,|Cured by the Heal- er di-|vine.|
w: 3.~Jut one touch! and the|work is done,|I am saved by the|bless- èd Son,|I will sing while the|ag- * es run,|Cured by the Heal- er di-|vine.|
w: 4.~Just one touch! and He|turns to me,|Oh, the love in His|eyes I see!|I am His, for He|hears * my plea,|Cured by the Heal- er di-|vine.|
w: 5.~Just one touch! by His|might- y power|He can heal thee this|bless- èd hour,|Thou canst hear though the|tem- * pests lower,|Cured by the Heal- er di-|vine.|
[M:4/4] [DF]2"^Refrain" [DB]2 [Fd]2 [DB]>[EG] | [DF]2 [B,D]2 [DF]4 | [CF]2 F2 [Fe]2 [Fd]>[Fc] | %11
w: |||
w: |||
w: Just one touch as He|pass- es by,|He will list to the|
w: |||
w: |||
 [Fd]2 [Fd]2 [Fc]4 | [Fd]2 [Ff]>[Fe] [Fd]2 [DB]>[DF] | [EG]2 [EG]2 [Ge]4 | %14
w: |||
w: |||
w: est cry, Come|and be saved while the Lord|is nigh, Christ|
w: |||
w: |||
 [Fd]2 [Ec]>[DB] [Ec]2 [DB]>[CA] | (D2 E2 D4) |] %16
w: ||
w: ||
w: is the Heal- er di- vine.||
w: ||
w: ||
V:2
 x6 | x6 | x6 | x6 | x6 | x6 | x6 | x6 ||[M:4/4] x8 | x8 | x2 F2 x4 | x8 | x8 | x8 | x8 | B8 |] %16
w: ||||||||||||||||
w: ||||||||||||||||
w: ||||||||||faint-||||||
V:3
 [B,,F,]2 [B,,F,] [B,,F,]2 [B,,F,] | [E,G,]2 [E,G,] [B,,F,]3 | B,,2 B,, B,,>C,D, | %3
 [F,A,]2 [F,B,] [F,,A,]3 | [B,,F,]2 [B,,F,] [B,,_A,]2 [B,,A,] | [E,G,]2 [E,G,] [B,,F,]3 | %6
 [F,A,]2 z [G,,F,]2 z | F,2 G, F,3 ||[M:4/4] [B,,B,]2 [B,,B,]2 [B,,B,]2 [B,,F,]>[B,,B,] | %9
 [B,,B,]2 [B,,F,]2 [B,,B,]4 | [F,A,]2 [F,A,]2 [F,C]2 [F,B,]>[F,A,] | B,2 B,2 [F,A,]4 | %12
 B,2 [B,D]>[B,C] [B,,B,]2 [B,,F,]>[B,,B,] | [E,B,]2 [E,B,]2 [E,B,]4 | %14
 [F,B,]2 F,>F, [F,,F,]2 [F,,F,]>[F,,F,] | (F,2 G,2 F,4) |] %16
V:4
 x6 | x6 | x6 | x6 | x6 | x6 | x6 | B,,6 ||[M:4/4] x8 | x8 | x8 | B,2 B,2 x4 | B,2 x6 | x8 | %14
 x2 F,>F, x4 | B,,8 |] %16
V:5
 [B,D]2 [B,D] [B,D]2 [B,D] | [B,E]2 [B,E] [B,D]3 | [B,D]2 [B,D] [DF]>[CE][B,D] | %3
 [CF]2 [DF] [CF]2 F | [B,D]2 [B,D] [B,D]2 [B,D] | [B,E]2 [B,E] [B,D]3 | [CF]2 z [EA]2 z | %7
 D2 E D3 || x8 | x8 | x8 | x8 | x8 | x8 | x8 | x8 |] %16
V:6
 x6 | x6 | x6 | x6 | x6 | x6 | x6 | B6 || x8 | x8 | x8 | x8 | x8 | x8 | x8 | x8 |] %16

